-- really dig the way this sounds with an organ patch I've
-- got running in bitwig
-- basic starting point with euclidean pattern on one note
d1
  $ n (off 0.25 (+12)
       $ off 0.125 (+7)
       $ slow 2 "c(1,8)") -- a(3,8,2) f(3,8) e(3,8,4)") 
  # s "iacdriver"
  # midichan 1

hush

-- stop the notes
d1 $ silence

-- stop the delay mix modulation
d2 $ silence

setcps $ 150 / 60 / 4
